icons/star_large.svg

<svg width="48" height="48" viewBox="0 0 48 48" fill="none" xmlns="http://www.w3.org/2000/svg">
<path fill-rule="evenodd" clip-rule="evenodd" d="M24 9.76187L20.1099 17.6815C19.6739 18.5691 18.8286 19.1888 17.8454 19.3323L9.12751 20.6051L15.4423 26.7898C16.1496 27.4825 16.4701 28.4777 16.304 29.4508L14.8153 38.1716L22.5972 34.061C23.4751 33.5972 24.5249 33.5972 25.4028 34.061L33.1847 38.1716L31.696 29.4508C31.5299 28.4777 31.8504 27.4825 32.5577 26.7898L38.8725 20.6051L30.1546 19.3323C29.1714 19.1888 28.3261 18.5691 27.8901 17.6815L24 9.76187ZM24.9031 7.06406C24.5337 6.31198 23.4663 6.31198 23.0969 7.06406L18.3148 16.7997C18.1681 17.0984 17.8845 17.3054 17.5565 17.3533L6.86337 18.9145C6.03734 19.0351 5.7075 20.055 6.30523 20.6404L14.0429 28.2186C14.2802 28.4511 14.3885 28.786 14.3325 29.1143L12.5059 39.8148C12.3648 40.6414 13.2283 41.2718 13.9671 40.8815L23.5314 35.8294C23.8248 35.6744 24.1753 35.6744 24.4686 35.8294L34.0329 40.8815C34.7717 41.2718 35.6352 40.6414 35.4941 39.8148L33.6675 29.1143C33.6115 28.786 33.7198 28.4511 33.9571 28.2186L41.6948 20.6404C42.2925 20.055 41.9627 19.0351 41.1366 18.9145L30.4435 17.3533C30.1155 17.3054 29.8319 17.0984 29.6852 16.7997L24.9031 7.06406Z" fill="black"/>
</svg>

<svg
  xmlns="http://www.w3.org/2000/svg"
  width="24"
  height="24"
  viewBox="0 0 24 24"
  fill="none"
  stroke="currentColor"
  stroke-width="2"
  stroke-linecap="round"
  stroke-linejoin="round"
>
  <path
    fill-rule="evenodd"
    d="m24 9.762-3.89 7.92a3 3 0 0 1-2.265 1.65l-8.717 1.273 6.314 6.185a3.02 3.02 0 0 1 .862 2.66l-1.489 8.722 7.782-4.111a3 3 0 0 1 2.806 0l7.782 4.11-1.489-8.72a3.02 3.02 0 0 1 .862-2.661l6.315-6.185-8.718-1.273a3 3 0 0 1-2.265-1.65zm.903-2.698a1.005 1.005 0 0 0-1.806 0L18.315 16.8c-.147.298-.43.505-.759.553L6.864 18.914c-.826.121-1.156 1.141-.558 1.726l7.738 7.579c.237.232.346.567.29.895l-1.827 10.7c-.141.827.722 1.458 1.461 1.068l9.564-5.053c.294-.155.644-.155.938 0l9.564 5.053c.739.39 1.602-.24 1.461-1.067l-1.827-10.7a1.01 1.01 0 0 1 .29-.896l7.738-7.579c.597-.585.268-1.605-.558-1.726l-10.693-1.56a1.01 1.01 0 0 1-.759-.554z"
    clip-rule="evenodd"
  />
</svg>
